X:43
T:Garthland House Strathspey
%MacDonald in The Skye Collection attributes this tune to R. Macintosh -SW
S:Petrie's Collection of Strathspey Reels and Country Dances &c., 1790
Z:Steve Wyrick , 6/4/04
N:Petrie's First Collection, page 19
L:1/8
V:1 name = "violin"
V:2 name = "bass" clef=bass middle=d transpose=-24
M:C
R:Strathspey
K:Bb
[V:1] D/E/|F>GF<D B,D/E/ FD|F>GF<D G/F/E/D/ CD/E/|F>GF<D F>G B>c|dB e/d/c/B/ FBB:|
[V:2] z   |B2 b2  B2     b2|d'2b2  c'2      c2   |d2 B2  d2  d2 |b2 f2       d2B:|
[V:1] g|fB e/d/c/B/ F>BD>B|fB e/d/c/B/ gccg  |fB e/d/c/B/ F<BD<B|(A/B/c) Fe dBBg|
[V:2] z|d2 B2       d2 b2 |d'2b2       e'2c'2|d'2b2       d2 b2 |f2      a2 b2B2|
[V:1] fB e/d/c/B/ FBDB|fB e/d/c/B/ g<cc<e|d<fe<g d<fc<d|F>G B>c dBB|]
[V:2] d2 B2       d2B2|d2 b2       e'2c'2|b2 e2  b2 f2 |e2  dc  B2B|]
% The above code was written using Phil Taylor's BarFly abc reader/converter/player program.
% Other abc converters (e.g. abc2ps) may require everything after the word "bass" to be
% deleted in the V:2 header line for correct display of notes the bass clef, or require that
% the M: and K: fields be repeated directly under the V:1 header line to display the meter
% and key signature on both staffs.  Some abc MIDI players (e.g. abc2midi) will not play
% multiple-voiced abc code.  -SW
